svg/fluentui-system-icons/ic_fluent_calendar_error_16_regular.svg

<svg width="16" height="16" viewBox="0 0 16 16" fill="none" xmlns="http://www.w3.org/2000/svg">
<path d="M11.5 2C12.8807 2 14 3.11929 14 4.5V6.59971C13.6832 6.43777 13.3486 6.30564 13 6.20703V6H3V11.5C3 12.3284 3.67157 13 4.5 13H6.20703C6.30564 13.3486 6.43777 13.6832 6.59971 14H4.5C3.11929 14 2 12.8807 2 11.5V4.5C2 3.11929 3.11929 2 4.5 2H11.5ZM11.5 3H4.5C3.67157 3 3 3.67157 3 4.5V5H13V4.5C13 3.67157 12.3284 3 11.5 3ZM16 11.5C16 13.9853 13.9853 16 11.5 16C9.01472 16 7 13.9853 7 11.5C7 9.01472 9.01472 7 11.5 7C13.9853 7 16 9.01472 16 11.5ZM11.5 9C11.2239 9 11 9.22386 11 9.5V11.5C11 11.7761 11.2239 12 11.5 12C11.7761 12 12 11.7761 12 11.5V9.5C12 9.22386 11.7761 9 11.5 9ZM11.5 14.125C11.8452 14.125 12.125 13.8452 12.125 13.5C12.125 13.1548 11.8452 12.875 11.5 12.875C11.1548 12.875 10.875 13.1548 10.875 13.5C10.875 13.8452 11.1548 14.125 11.5 14.125Z" fill="#212121"/>
</svg>

<svg xmlns="http://www.w3.org/2000/svg" width="16" height="16"><path d="M11.5 2A2.5 2.5 0 0 1 14 4.5v2.1a5.465 5.465 0 0 0-1-.393V6H3v5.5A1.5 1.5 0 0 0 4.5 13h1.707c.099.349.23.683.393 1H4.5A2.5 2.5 0 0 1 2 11.5v-7A2.5 2.5 0 0 1 4.5 2h7Zm0 1h-7A1.5 1.5 0 0 0 3 4.5V5h10v-.5A1.5 1.5 0 0 0 11.5 3Zm4.5 8.5a4.5 4.5 0 1 1-9 0 4.5 4.5 0 0 1 9 0ZM11.5 9a.5.5 0 0 0-.5.5v2a.5.5 0 0 0 1 0v-2a.5.5 0 0 0-.5-.5Zm0 5.125a.625.625 0 1 0 0-1.25.625.625 0 0 0 0 1.25Z"/></svg>
